assets/Receipt/Flat/receipt_flat.svg

<svg width="32" height="32" viewBox="0 0 32 32" fill="none" xmlns="http://www.w3.org/2000/svg">
<path d="M25.05 3.105L24.03 2.165C23.79 1.945 23.42 1.945 23.18 2.165L22.16 3.105C22.02 3.235 21.79 3.235 21.65 3.105L20.63 2.165C20.39 1.945 20.02 1.945 19.78 2.165L18.76 3.105C18.62 3.235 18.39 3.235 18.25 3.105L17.23 2.165C16.99 1.945 16.62 1.945 16.38 2.165L15.35 3.105C15.21 3.235 14.98 3.235 14.84 3.105L13.82 2.165C13.58 1.945 13.21 1.945 12.97 2.165L11.95 3.105C11.81 3.235 11.58 3.235 11.44 3.105L10.42 2.155C10.26 2.005 10 2.125 10 2.345V3.775V29.995H24.61C25.93 29.995 27 28.925 27 27.605V3.765V2.345C27 2.125 26.74 2.015 26.58 2.165L25.55 3.115C25.41 3.235 25.19 3.235 25.05 3.105Z" fill="#D3D3D3"/>
<path d="M12.25 8H24.75C24.89 8 25 7.89 25 7.75V6.25C25 6.11 24.89 6 24.75 6H12.25C12.11 6 12 6.11 12 6.25V7.75C12 7.89 12.11 8 12.25 8ZM12.5 10C12.2239 10 12 10.2239 12 10.5C12 10.7761 12.2239 11 12.5 11H20.5C20.7761 11 21 10.7761 21 10.5C21 10.2239 20.7761 10 20.5 10H12.5ZM12.5 13C12.2239 13 12 13.2239 12 13.5C12 13.7761 12.2239 14 12.5 14H20.5C20.7761 14 21 13.7761 21 13.5C21 13.2239 20.7761 13 20.5 13H12.5ZM12 16.5C12 16.2239 12.2239 16 12.5 16H20.5C20.7761 16 21 16.2239 21 16.5C21 16.7761 20.7761 17 20.5 17H12.5C12.2239 17 12 16.7761 12 16.5ZM12.5 19C12.2239 19 12 19.2239 12 19.5C12 19.7761 12.2239 20 12.5 20H20.5C20.7761 20 21 19.7761 21 19.5C21 19.2239 20.7761 19 20.5 19H12.5ZM12 22.5C12 22.2239 12.2239 22 12.5 22H20.5C20.7761 22 21 22.2239 21 22.5C21 22.7761 20.7761 23 20.5 23H12.5C12.2239 23 12 22.7761 12 22.5ZM22.5 10C22.2239 10 22 10.2239 22 10.5C22 10.7761 22.2239 11 22.5 11H24.5C24.7761 11 25 10.7761 25 10.5C25 10.2239 24.7761 10 24.5 10H22.5ZM22 13.5C22 13.2239 22.2239 13 22.5 13H24.5C24.7761 13 25 13.2239 25 13.5C25 13.7761 24.7761 14 24.5 14H22.5C22.2239 14 22 13.7761 22 13.5ZM22.5 16C22.2239 16 22 16.2239 22 16.5C22 16.7761 22.2239 17 22.5 17H24.5C24.7761 17 25 16.7761 25 16.5C25 16.2239 24.7761 16 24.5 16H22.5ZM22 19.5C22 19.2239 22.2239 19 22.5 19H24.5C24.7761 19 25 19.2239 25 19.5C25 19.7761 24.7761 20 24.5 20H22.5C22.2239 20 22 19.7761 22 19.5ZM22.5 22C22.2239 22 22 22.2239 22 22.5C22 22.7761 22.2239 23 22.5 23H24.5C24.7761 23 25 22.7761 25 22.5C25 22.2239 24.7761 22 24.5 22H22.5ZM22 27.495V25.935C22 25.415 21.58 24.995 21.06 24.995H6.94C6.42 24.995 6 25.415 6 25.935V27.495C6 28.875 7.12 29.995 8.5 29.995H24.5C23.12 29.995 22 28.875 22 27.495Z" fill="#9B9B9B"/>
</svg>

<svg xmlns="http://www.w3.org/2000/svg" width="32" height="32" fill="none"><path fill="#D3D3D3" d="m25.05 3.105-1.02-.94a.63.63 0 0 0-.85 0l-1.02.94c-.14.13-.37.13-.51 0l-1.02-.94a.63.63 0 0 0-.85 0l-1.02.94c-.14.13-.37.13-.51 0l-1.02-.94a.63.63 0 0 0-.85 0l-1.03.94c-.14.13-.37.13-.51 0l-1.02-.94a.63.63 0 0 0-.85 0l-1.02.94c-.14.13-.37.13-.51 0l-1.02-.95c-.16-.15-.42-.03-.42.19v27.65h14.61a2.39 2.39 0 0 0 2.39-2.39V2.345c0-.22-.26-.33-.42-.18l-1.03.95a.38.38 0 0 1-.5-.01Z"/><path fill="#9B9B9B" d="M12.25 8h12.5c.14 0 .25-.11.25-.25v-1.5c0-.14-.11-.25-.25-.25h-12.5c-.14 0-.25.11-.25.25v1.5c0 .14.11.25.25.25Zm.25 2a.5.5 0 0 0 0 1h8a.5.5 0 0 0 0-1h-8Zm0 3a.5.5 0 0 0 0 1h8a.5.5 0 0 0 0-1h-8Zm-.5 3.5a.5.5 0 0 1 .5-.5h8a.5.5 0 0 1 0 1h-8a.5.5 0 0 1-.5-.5Zm.5 2.5a.5.5 0 0 0 0 1h8a.5.5 0 0 0 0-1h-8Zm-.5 3.5a.5.5 0 0 1 .5-.5h8a.5.5 0 0 1 0 1h-8a.5.5 0 0 1-.5-.5ZM22.5 10a.5.5 0 0 0 0 1h2a.5.5 0 0 0 0-1h-2Zm-.5 3.5a.5.5 0 0 1 .5-.5h2a.5.5 0 0 1 0 1h-2a.5.5 0 0 1-.5-.5Zm.5 2.5a.5.5 0 0 0 0 1h2a.5.5 0 0 0 0-1h-2Zm-.5 3.5a.5.5 0 0 1 .5-.5h2a.5.5 0 0 1 0 1h-2a.5.5 0 0 1-.5-.5Zm.5 2.5a.5.5 0 0 0 0 1h2a.5.5 0 0 0 0-1h-2Zm-.5 5.495v-1.56c0-.52-.42-.94-.94-.94H6.94c-.52 0-.94.42-.94.94v1.56a2.5 2.5 0 0 0 2.5 2.5h16a2.5 2.5 0 0 1-2.5-2.5Z"/></svg>
